images/delete.svg

<svg fill="none" height="24" viewBox="0 0 24 24" width="24" xmlns="http://www.w3.org/2000/svg" xmlns:xlink="http://www.w3.org/1999/xlink"><clipPath id="a"><path d="m0 0h24v24h-24z"/></clipPath><g clip-path="url(#a)"><path d="m16 9v10h-8v-10zm-1.5-6h-5l-1 1h-3.5v2h14v-2h-3.5zm3.5 4h-12v12c0 1.1.9 2 2 2h8c1.1 0 2-.9 2-2z" fill="#fc494f"/></g></svg>

<svg width="24" height="24" viewBox="0 0 24 24" fill="none" xmlns="http://www.w3.org/2000/svg">
<g clip-path="url(#clip0_2192_587)">
<path d="M16 9V19H8V9H16ZM14.5 3H9.5L8.5 4H5V6H19V4H15.5L14.5 3ZM18 7H6V19C6 20.1 6.9 21 8 21H16C17.1 21 18 20.1 18 19V7Z" fill="#FC494F"/>
</g>
<defs>
<clipPath id="clip0_2192_587">
<rect width="24" height="24" fill="white"/>
</clipPath>
</defs>
</svg>
